!!!!SEGMENT: pl-gd--ee-1638--008-010_marenzio-luca--il-quarto-libro-de-madrigalia-a-sei-voci-ne-fero-sdegno.krn
!!!cenid: 15xx:872
!!!COM: Marenzio, Luca
!!!COM-rismID: pe30003955
!!!CDT: ~1553-1599/08/22
!!!CNT: Italian
!!!GTL: Il Quarto Libro de madrigalia a sei voci
!!!OTL: Ne fero sdegno
!!!OMV: 010
!!!PDT: 1587
!!!AGN:
!!!SMS-siglum: PL-GD
!!!SMS-shelfmark: Ee 1638
!!!SMS-variant:
!!!SMS-altvar:
!!!SMS-shelfwork: 008-010 G
!!!NIFC-rismSourceID: 990039254
!!!NIFC-islandoraID: pl-gd:57883
!!!URL-pdf-islandora: https://repozytorium.nifc.pl/islandora/object/pl-gd%3A57883/datastream/PDF/view
!!!URL-scan: https://polish.musicsources.pl/pl/lokalizacje/galeria/klocki-introligatorskie/655 @EN{Scan on Polish Music Sources Website} @PL{Skany w portalu Dziedzictwo Muzyki Polskiej w otwartym dostępie}
!!!ONB-nifc: UWAGA: zbiór na stronach: Canto: s. 706-716, Alto: s. 554-564, Tenore: s. 402-412, Basso: s.250-260, Quinto: s. 98-108, Sesto: s. 16-26. Uwaga: utwory podzielone wg tytułów w spisach treści dostępnych na końcu każdej księgi głosowej.
!!!AIN: 2 alto 1 bass 1 soprn 2 tenor
!!!key: d:dor
**kern	**text	**kern	**text	**kern	**text	**kern	**text	**kern	**text	**kern	**text
*part6	*part6	*part5	*part5	*part4	*part4	*part3	*part3	*part2	*part2	*part1	*part1
*staff6	*staff6	*staff5	*staff5	*staff4	*staff4	*staff3	*staff3	*staff2	*staff2	*staff1	*staff1
*I"BASSO	*	*I"TENORE	*	*I"SESTO	*	*I"ALTO	*	*I"QVINTO	*	*I"CANTO	*
*I'B.	*	*I'T.	*	*I'S.	*	*I'A.	*	*I'Q.	*	*I'C.	*
*Ibass	*	*Itenor	*	*Itenor	*	*Ialto	*	*Ialto	*	*Isoprn	*
*ICvox	*	*ICvox	*	*ICvox	*	*ICvox	*	*Cvox	*	*ICvox	*
*clefF3	*	*clefC3	*	*clefC3	*	*clefC2	*	*clefC1	*	*clefG2	*
*k[]	*	*k[]	*	*k[]	*	*k[]	*	*k[]	*	*k[]	*
*d:dor	*	*d:dor	*	*d:dor	*	*d:dor	*	*d:dor	*	*d:dor	*
*M2/1	*	*M2/1	*	*M2/1	*	*M2/1	*	*M2/1	*	*M2/1	*
=1-	=1-	=1-	=1-	=1-	=1-	=1-	=1-	=1-	=1-	=1-	=1-
!LO:TX:b:t=Ne fero.	!	!	!	!	!	!	!	!LO:TX:a:t=Prima parte.	!	!	!
!LO:TX:a:t=Prima parte.	!	!LO:TX:a:t=Prima parte.	!	!LO:TX:t=P:problem:Skan 21	!	!LO:TX:b:t=Ne fero	!	!LO:TX:b:t=Ne fero	!	!LO:TX:a:t=Prima parte.	!
!LO:TX:t=P:problem:Skan 255	!	!LO:TX:t=P:problem:Skan 407	!	!LO:TX:b:t=NE fero.	!	!LO:TX:t=P:problem:Skan 559	!	!LO:TX:t=P:problem:Skan 103	!	!LO:TX:t=P:problem:Skan 711	!
00r	.	2d\	NE	1r	.	1r	.	0r	.	1dd	Ne
.	.	4.d\	fe-	.	.	.	.	.	.	.	.
.	.	8e\	-ro	.	.	.	.	.	.	.	.
.	.	4f\	xde-	2r	.	2r	.	.	.	1dd	fe-
.	.	4d\	-gno	.	.	.	.	.	.	.	.
.	.	2g\	mai	4r	.	4r	.	.	.	.	.
.	.	.	.	4.g\	Don-	4.b\	Don-	.	.	.	.
=2-	=2-	=2-	=2-	=2-	=2-	=2-	=2-	=2-	=2-	=2-	=2-
.	.	2r	.	.	.	.	.	2r	.	1dd	-ro
.	.	.	.	8g\	-na	8b\	-na	.	.	.	.
.	.	.	.	4f#X\	mi	4a\	mi	.	.	.	.
.	.	4r	.	2g\	moſ-	4.b\	moſ-	4r	.	.	.
.	.	4.g\	Don-	.	.	.	.	4.b\	Don-	.	.
.	.	.	.	.	.	8cc\	.	.	.	.	.
.	.	.	.	2d\	-ſe	4dd\	.	.	.	1dd	ſde-
.	.	8g\	-na	.	.	.	.	8b\	-na	.	.
.	.	4f#X\	mi	.	.	4d/	-ſe	4a\	mi	.	.
.	.	2g\	moſ-	4r	.	4r	.	2.b\	moſ-	.	.
.	.	.	.	4G/	An-	4.g\	Don-	.	.	.	.
=3-	=3-	=3-	=3-	=3-	=3-	=3-	=3-	=3-	=3-	=3-	=3-
00r	.	2d\	-ſe	4B/	-cor	.	.	.	.	1dd	-gno
.	.	.	.	.	.	8g\	-na	.	.	.	.
.	.	.	.	4d\	da	4f#X\	mi	4a\	-ſe	.	.
.	.	4r	.	4G/	voi	2g\	mox-	4r	.	.	.
.	.	4G/	An-	4g\	ne	.	.	4b\	An-	.	.
.	.	4B/	-cor	4g\	lon-	2d/	-xe	4b\	-cor	1dd	mai
!	!	!LO:SIC:v:t=custos G	!	!	!	!	!	!	!	!	!
.	.	4d\	da	4f#X\	-ta-	.	.	4a\	da	.	.
!	!	!LO:LB:g=original	!	!	!	!	!	!	!	!	!
.	.	4G/	voi	2g\	-nan-	4r	.	2b\	voi	.	.
!	!	!	!	!	!	!LO:SIC:v:t=custos B	!	!	!	!	!
.	.	4g\	ne	.	.	4G/	An-	.	.	.	.
=4-	=4-	=4-	=4-	=4-	=4-	=4-	=4-	=4-	=4-	=4-	=4-
!	!	!	!	!	!	!LO:LB:g=original	!	!	!	!	!
.	.	4g\	lon-	2d\	-za	4B/	-cor-	4r	.	1dd	Don-
.	.	4f#X\	-ta-	.	.	4d/	-da	4a\	ne	.	.
.	.	2g\	-nan-	4r	.	4G/	voi	8b\	lon-	.	.
.	.	.	.	.	.	.	.	8a\	.	.	.
.	.	.	.	4G/	An-	4g\	ne	8b\	.	.	.
!	!	!	!	!	!	!	!	!LO:SIC:v:t=custos dd	!	!	!
.	.	.	.	.	.	.	.	8cc\	.	.	.
!	!	!	!	!	!	!	!	!LO:LB:g=original	!	!	!
.	.	2d\	-za	4B/	-cor	4g\	lon-	4dd\	.	1dd	-na
.	.	.	.	4d\	da	4f#X\	-ta-	4a\	-ta-	.	.
.	.	4r	.	4G/	voi	4.g\	-nan-	4.b\	-nan-	.	.
.	.	4G/	al-	4g\	ne	.	.	.	.	.	.
.	.	.	.	.	.	8a\	.	8cc\	.	.	.
=5-	=5-	=5-	=5-	=5-	=5-	=5-	=5-	=5-	=5-	=5-	=5-
0r	.	2d\	-cu-	4g\	lon-	4b\	-za	4dd\	.	1dd	mi
.	.	.	.	4f#X\	-tanan-	4a\	al-	2d/	-za	.	.
.	.	2G/	-na	4g\	-za	4.b\	-cu-	.	.	.	.
.	.	.	.	4G/	al-	.	.	2g/	al-	.	.
.	.	.	.	.	.	16a\	.	.	.	.	.
.	.	.	.	.	.	16g\	.	.	.	.	.
.	.	1r	.	1d	-cu-	1a	.	.	.	1dd	moſ-
.	.	.	.	.	.	.	.	8f/	-cu-	.	.
.	.	.	.	.	.	.	.	8e/	.	.	.
.	.	.	.	.	.	.	.	2f#X/	.	.	.
=6-	=6-	=6-	=6-	=6-	=6-	=6-	=6-	=6-	=6-	=6-	=6-
2r	.	4r	.	2G/	-na	1b	-na	1g	-na	4dd\	-ſe
.	.	2d\	Ne	.	.	.	.	.	.	4g/	An-
2G\	Ne	.	.	4r	.	.	.	.	.	4b/	-cor
!	!	!	!	!	!	!	!	!	!	!LO:SIC:v:t=custos g	!
.	.	2d\	mou-	2B/	Ne	.	.	.	.	4dd\	da
!	!	!	!	!	!	!	!	!	!	!LO:LB:g=original	!
2E/	mou-	.	.	.	.	2r	.	2r	.	4g/	voi
.	.	4c#X/	-ra	4G/	mou-	.	.	.	.	4gg\	ne
2D/	-rai	2d\	mai	2A/	-ra	2a\	Ne	2.dd\	Ne	4gg\	lonta-
.	.	.	.	.	.	.	.	.	.	4ff#X\	-nan-
=7-	=7-	=7-	=7-	=7-	=7-	=7-	=7-	=7-	=7-	=7-	=7-
1G	mai	1r	.	4B/	mai	4g\	mou-	.	.	4gg\	-za
.	.	.	.	2g\	Ne	4e/	-rai	2cc\	mou	4g/	al-
!	!	!	!	!	!	!LO:SIC:v:t=custos c	!	!	!	!	!
.	.	.	.	.	.	2d/	mai	.	.	2dd\	-cu-
.	.	.	.	4d\	ma-	.	.	4b\	ra	.	.
1c	Ne	2r	.	2e\	-u-	2r	.	1cc	mai	2g/	-na
.	.	2e\	Ne-	2g\	-ra	4r	.	.	.	4r	.
!	!	!	!	!	!	!LO:LB:g=original	!	!	!	!	!
.	.	.	.	.	.	2c/	Ne	.	.	4cc\	Ne
=8-	=8-	=8-	=8-	=8-	=8-	=8-	=8-	=8-	=8-	=8-	=8-
2A\	mou-	2e\	-mou-	0r	.	.	.	0r	.	2cc\	mou-
.	.	.	.	.	.	2cc\	mou-	.	.	.	.
2G\	-rai	2g\	-ra	.	.	.	.	.	.	2dd\	-ra
.	.	.	.	.	.	4b\	-ra	.	.	.	.
1c	mai	1g	mai	.	.	1cc	mai	.	.	1ee	mai
=9-	=9-	=9-	=9-	=9-	=9-	=9-	=9-	=9-	=9-	=9-	=9-
4F/	man-	4fny\	man-	4c/	man-	4a\	man-	4cc\	man-	4ff\	man-
8F/	-da-	8cny\	-da-	8A/	-da-	8a\	-da-	8cc\	-da-	8ff\	-da-
!	!	!LO:SIC:v:t=custos A	!	!	!	!	!	!	!	!	!
8E/	-mi	8e\	-mi	8c\	-mi	8g\	-mi	8cc\	-mi	8gg\	-mi
!	!	!LO:LB:g=original	!	!	!	!	!	!	!	!	!
4F/	pur	4A/	pur	4c/	pur	4a\	pur	4cc\	pu	4gg\	pur
!LO:SIC:v:t=custos C	!	!	!	!	!	!	!	!	!	!	!
4G\	for-	4G/	for-	4g\	for-	4d/	for-	4b\	for-	4dd\	for-
!	!	!	!	!	!	!	!	!	!	!LO:SIC:v:t=custos ee	!
!LO:LB:g=original	!	!	!	!	!	!	!	!	!	!	!
2C/	-tu-	2G/	-tu-	2e\	-tu-	2g\	-tu-	2cc\	-tu-	2ee\	-tu-
!	!	!	!	!	!	!	!	!LO:SIC:v:t=custos ee	!	!	!
!	!	!	!	!	!	!	!	!	!	!LO:LB:g=original	!
2C/	-na	4G/	-na	2e\	-na	2g\	-na	2cc\	-na	4ee\	-na
.	.	4c/	Per	.	.	.	.	.	.	4ee\	Per
=10-	=10-	=10-	=10-	=10-	=10-	=10-	=10-	=10-	=10-	=10-	=10-
2G\	Per	8B/	l' on-	2r	.	2g\	Per	2r	.	8dd\	l' on
.	.	8A/	.	.	.	.	.	.	.	8cc\	.
.	.	8B/	.	.	.	.	.	.	.	8dd\	.
.	.	8c/	.	.	.	.	.	.	.	8ee\	.
4G\	l' on-	4B/	-de	4r	.	1g	l' onde	4r	.	4dd\	.
!	!	!	!	!	!	!	!	!LO:LB:g=original	!	!	!
4C/	-de	4c/	az-	4G/	Per	.	.	4ee\	Per	4cc\	de
2G\	azzur-	2d\	-zur-	8B/	l' on-	.	.	8dd\	l' on-	2b/	azzur-
.	.	.	.	8A/	.	.	.	8cc\	.	.	.
.	.	.	.	8B/	.	.	.	8dd\	.	.	.
.	.	.	.	8c/	.	.	.	8ee\	.	.	.
4G\	-re	4G/	-re	4B/	.	2g\	azzu-	4dd\	.	4b/	-re
4C/	Per	4G/	Per	4c/	-de az-	.	.	4cc\	-de az-	4ee\	Per
=11-	=11-	=11-	=11-	=11-	=11-	=11-	=11-	=11-	=11-	=11-	=11-
2.G\	l' on-	8B/	l' on-	2d\	-zur-	1g	-rre	2b\	-zur-	8dd\	l' on
.	.	8A/	.	.	.	.	.	.	.	8cc\	.
.	.	8B/	.	.	.	.	.	.	.	8dd\	.
.	.	8c/	.	.	.	.	.	.	.	8ee\	.
.	.	4B/	-de	4G/	-re	.	.	4b\	-re	4dd\	.
4C/	-de	4c/	azzur-	4G/	Per	.	.	4ee\	Per	4cc\	de az-
2G\	azzurre	2d\	-re	8B/	l' on-	1g	err-	8dd\	l on-	2b/	-zur-
.	.	.	.	8A/	.	.	.	8cc\	.	.	.
.	.	.	.	8B/	.	.	.	8dd\	.	.	.
.	.	.	.	8c\	.	.	.	8ee\	.	.	.
2G\	er-	4B/	er-	4d\	.	.	.	4dd\	.	2b/	-re
.	.	4.e\	-ran-	4G/	-de	.	.	4b\	-de az-	.	.
=12-	=12-	=12-	=12-	=12-	=12-	=12-	=12-	=12-	=12-	=12-	=12-
2A\	-ran-	.	.	4c\	azzur-	2e/	-ando	4cc\	-zur-	4r	.
.	.	8d\	.	.	.	.	.	.	.	.	.
!	!	!LO:SIC:v:t=custos B	!	!	!	!	!	!	!	!	!
.	.	4c/	.	4e\	-re	.	.	4a\	-re er-	2ee\	er-
!	!	!	!	!	!	!LO:SIC:v:t=custos A	!	!	!	!	!
!	!	!LO:LB:g=original	!	!	!	!	!	!	!	!	!
2E/	-do	4B/	-do e	4g\	erra-	2e/	e	4b\	-rado	.	.
!	!	!	!	!	!	!	!	!LO:SIC:v:t=custos a	!	!	!
.	.	2c/	per	4e\	-do e	.	.	4g/	e	4.cc\	-ran-
!	!	!	!	!	!	!	!	!LO:LB:g=original	!	!	!
!	!	!	!	!	!	!LO:LB:g=original	!	!	!	!	!
!	!	!	!	!	!	!	!	!LO:LB:g=original	!	!	!
2F/	per	.	.	2c/	per	2A/	per	2a\	per	.	.
!	!	!	!	!	!	!	!	!	!	!LO:SIC:v:t=custos ff	!
.	.	.	.	.	.	.	.	.	.	8a/	-do
!	!	!	!	!	!	!	!	!	!	!LO:LB:g=original	!
.	.	2A/	le	.	.	.	.	.	.	4.ff\	per
2D/	le	.	.	2d\	le	2fny\	le	2a\	le	.	.
.	.	.	.	.	.	.	.	.	.	8ee\	le
.	.	2a\	roſ-	.	.	.	.	.	.	2dd\	roſ-
=13-	=13-	=13-	=13-	=13-	=13-	=13-	=13-	=13-	=13-	=13-	=13-
1A	roſ-	.	.	2e\	roſ-	1e	roſ-	1a	roſ-	.	.
.	.	8g\	.	.	.	.	.	.	.	8cc\	.
.	.	8f\	.	.	.	.	.	.	.	8b\	.
.	.	2e\	.	2A/	-ſe	.	.	.	.	2cc#X\	.
1D	-ſe	1d	-ſe	2r	.	1f#X	-ſe	1a	-ſe	0dd	-ſe
.	.	.	.	1d\	Se	.	.	.	.	.	.
=14-	=14-	=14-	=14-	=14-	=14-	=14-	=14-	=14-	=14-	=14-	=14-
!LO:SIC:v:t=custos G	!	!	!	!	!	!	!	!	!	!	!
1G	Se	0r	.	.	.	1r	.	1b	Se	.	.
.	.	.	.	4d\	quan-	.	.	.	.	.	.
.	.	.	.	4d\	-te	.	.	.	.	.	.
!LO:LB:g=original	!	!	!	!	!	!	!	!	!	!	!
4G\	quan-	.	.	4d\	ſpu-	1g	Se	4b\	quan-	1r	.
4G\	-te	.	.	4d\	-me	.	.	4b\	-te	.	.
4G\	ſpu-	.	.	2.g\	ſan	.	.	4b\	ſpu-	.	.
4G\	-me	.	.	.	.	.	.	4b\	-me	.	.
=15-	=15-	=15-	=15-	=15-	=15-	=15-	=15-	=15-	=15-	=15-	=15-
2.c\	ſan	1r	.	.	.	4d/	quan-	2cc\	ſan	0r	.
.	.	.	.	4fny\	l' ac-	4d/	-te	.	.	.	.
.	.	.	.	4e\	-que	4e/	ſpu-	2c/	l' ac-	.	.
4B\	l' ac-	.	.	4d\	per	4fny\	-me	.	.	.	.
4A\	-que	2r	.	1c	coſ-	4g\	ſan	4e/	-que	.	.
4G\	per	.	.	.	.	4g\	l' ac-	4e/	per-	.	.
2.F/	coſ-	4r	.	.	.	4cc\	-que	2f/	-coſ-	.	.
.	.	4c/	Dai	.	.	4b\	per-	.	.	.	.
=16-	=16-	=16-	=16-	=16-	=16-	=16-	=16-	=16-	=16-	=16-	=16-
.	.	2d\	re-	2A/	-ſe	1a	-coſ-	2f/	-ſe	1r	.
4F/	-ſe	.	.	.	.	.	.	.	.	.	.
2C/	Dai	2e\	-mi	4G/	Dai	.	.	4r	.	.	.
.	.	.	.	2A/	re-	.	.	4cc\	Dai	.	.
2D/	re-	2f\	noſ-	.	.	2cc\	-ſe	4a\	re-	2r	.
.	.	.	.	2B/	-mi	.	.	4dd\	-mi	.	.
2E/	-mi	2g\	-tri	.	.	2r	.	4b\	noc-	4r	.
!	!	!	!	!	!	!	!	!LO:SIC:v:t=custos cc	!	!	!
.	.	.	.	2c\	noſ-	.	.	4ee\	-tri al	4g/	Dai
=17-	=17-	=17-	=17-	=17-	=17-	=17-	=17-	=17-	=17-	=17-	=17-
!	!	!	!	!	!	!	!	!LO:LB:g=original	!	!	!
2F/	no-	1r	.	.	.	4c/	Dai	4cc\	Sol	2a/	re-
.	.	.	.	4f\	-tri al	2d/	re-	4a\	.	.	.
2G\	-ſtri	.	.	4d\	Sol	.	.	4dd\	a-	2b/	-mi
!	!	!	!	!	!	!LO:SIC:v:t=custos f	!	!	!	!	!
.	.	.	.	4g\	.	2e/	-mi	4b\	-la	.	.
2A\	Sol	2r	.	4e\	a	.	.	4ee\	Lu-	2ccny\	no-
!	!	!	!	!	!	!LO:LB:g=original	!	!	!	!	!
.	.	.	.	4a\	la	2f#X\	noſtri	4a\	-na	.	.
!LO:SIC:v:t=custos c	!	!	!	!	!	!	!	!	!	!	!
2B\	.	4r	.	4d\	Lu-	.	.	2r	.	2dd\	-ſtri
.	.	4d\	al	4G/	-na	2g\	al	.	.	.	.
=18-	=18-	=18-	=18-	=18-	=18-	=18-	=18-	=18-	=18-	=18-	=18-
!LO:LB:g=original	!	!	!	!	!	!	!	!	!	!	!
2c\	a	4g\	Sol	0r	.	.	.	0r	.	4.ee\	al
.	.	4e\	.	.	.	4.a\	Sol	.	.	.	.
.	.	.	.	.	.	.	.	.	.	8ee\	Sol
2d\	la	4a\	a	.	.	.	.	.	.	8ff\	a
.	.	.	.	.	.	8a\	.	.	.	8ee\	.
!	!	!LO:SIC:v:t=custos g	!	!	!	!	!	!	!	!	!
.	.	4f#X\	la	.	.	2b\	a	.	.	8dd\	.
.	.	.	.	.	.	.	.	.	.	8cc\	.
!	!	!LO:LB:g=original	!	!	!	!	!	!	!	!	!
1e	Lu-	4g#X\	Lu-	.	.	.	.	.	.	4b/	.
.	.	2a\	.	.	.	4cc\	la	.	.	4ee\	la
!	!	!	!	!	!	!	!	!	!	!LO:SIC:v:t=custos ee	!
.	.	.	.	.	.	2b\	Lu-	.	.	2ee\	Lu-
.	.	4g#X\	.	.	.	.	.	.	.	.	.
=19-	=19-	=19-	=19-	=19-	=19-	=19-	=19-	=19-	=19-	=19-	=19-
!	!	!	!	!	!	!	!	!	!	!LO:LB:g=original	!
!LO:TX:t=P:problem:"3" przy nucie	!	!	!	!	!	!	!	!	!	!	!
1A	-na	1a	-na	1r	.	1cc#X	-na	1r	.	1ee	-na
1ryy	.	1ryy	.	1ryy	.	1ryy	.	1ryy	.	1ryy	.
=20-	=20-	=20-	=20-	=20-	=20-	=20-	=20-	=20-	=20-	=20-	=20-
*M3/2	*	*M3/2	*	*M3/2	*	*M3/2	*	*M3/2	*	*M3/2	*
!	!	!LO:TX:t=P:problem:"3" przy nucie	!	!	!	!	!	!	!	!	!
!	!	!	!	!LO:TX:t=P:problem:"3" przy nucie	!	!	!	!	!	!	!
!	!	!	!	!	!	!LO:TX:t=P:problem:"3" przy nucie	!	!	!	!	!
!	!	!	!	!	!	!	!	!LO:TX:t=P:problem:"3" przy nucie	!	!	!
!	!	!	!	!	!	!	!	!	!	!LO:TX:t=P:problem:"3" przy nucie	!
2.D/	Tan-	2.a\	Tan-	2.A/	Tan-	2.dd\	Tan-	2.d/	Tan-	2.ff#X\	Tan-
4D/	-te	4a\	-te	4A/	-te	4dd\	-te	4d/	-te	4ffn\	-te
2D/	naſ-	2a\	naſ-	2A/	naſ-	2d/	naſ-	2dd\	naſ-	2ff\	naſ-
=21-	=21-	=21-	=21-	=21-	=21-	=21-	=21-	=21-	=21-	=21-	=21-
1G	-ceſ-	1g	-ceſ-	1B	-ceſ-	1d	-ceſ-	1dd	-ceſ-	1gg	-ceſ-
2G\	-ſer	2g\	-ſe	2d\	-ſer	2d/	-xer	2b\	-ſer	2dd\	-ſer
=22-	=22-	=22-	=22-	=22-	=22-	=22-	=22-	=22-	=22-	=22-	=22-
2.C/	Ve-	2.e\	Ve-	2.c/	Ve-	2.g\	Ve-	2.cc\	Ve-	2.ee\	Ve-
4C/	-ne-	4e\	-ne-	4c/	-ne-	4g\	-ne-	4cc\	-ne-	4ee\	-ne-
2C/	-ri	2e\	-ri	2c/	-ri	2g\	-ri	2cc\	-ri	2ee\	-ri
=23-	=23-	=23-	=23-	=23-	=23-	=23-	=23-	=23-	=23-	=23-	=23-
*M2/1	*	*M2/1	*	*M2/1	*	*M2/1	*	*M2/1	*	*M2/1	*
4r	.	1r	.	0r	.	4r	.	4r	.	0r	.
2F/	e	.	.	.	.	2a\	e	2cc\	e	.	.
!	!	!	!	!	!	!LO:SIC:v:t=custos e	!	!	!	!	!
4G\	ciaſ-	.	.	.	.	4g\	ciaſ-	4b-X\	ciaſ-	.	.
!	!	!	!	!	!	!LO:LB:g=original	!	!	!	!	!
2A\	-cu-	4r	.	.	.	2e/	-eu-	2a\	-cu-	.	.
.	.	2c/	e	.	.	.	.	.	.	.	.
4A\	-na	.	.	.	.	4e/	-na	4a\	-na	.	.
!LO:SIC:v:t=custos A	!	!	!	!	!	!	!	!LO:SIC:v:t=custos a	!	!	!
4B-X\	Di	4d\	cia-	.	.	4d/	Di	4g/	Di	.	.
=24-	=24-	=24-	=24-	=24-	=24-	=24-	=24-	=24-	=24-	=24-	=24-
!	!	!	!	!	!	!	!	!LO:LB:g=original	!	!	!
!LO:LB:g=original	!	!	!	!	!	!	!	!	!	!	!
0A	lor	2e\	-xcu-	4r	.	2c/	lod	1a	lor	4r	.
.	.	.	.	2c/	e	.	.	.	.	4ee\	d' un
.	.	4e\	-na	.	.	2A/	d' un	.	.	4cc\	nouo
!	!	!LO:SIC:v:t=custos e	!	!	!	!	!	!	!	!	!
.	.	4fny\	Di	4d\	ciaſ-	.	.	.	.	4a/	A-
!	!	!LO:LB:g=original	!	!	!	!	!	!	!	!	!
.	.	8e\	lor	2e\	-cu-	4c/	nouo	4r	.	2ee\	-mor
.	.	8d\	.	.	.	.	.	.	.	.	.
.	.	8c/	.	.	.	4A/	A-	4ee\	d' un	.	.
.	.	8B/	.	.	.	.	.	.	.	.	.
.	.	2A/	.	4e\	-na	1a\	-mor	4cc\	nouo	2r	.
.	.	.	.	4f\	Di	.	.	4a\	A-	.	.
=25-	=25-	=25-	=25-	=25-	=25-	=25-	=25-	=25-	=25-	=25-	=25-
0A	d' un	4r	.	2e\	lor	.	.	2ee\	-mor	4.cc\	e
.	.	4e\	d' un	.	.	.	.	.	.	.	.
.	.	.	.	.	.	.	.	.	.	8dd\	ciaſ-
.	.	4c/	nouo	4r	.	2r	.	4r	.	2ee\	-cu-
.	.	4A/	A-	4e\	d' un	.	.	4.cc\	gra-	.	.
.	.	4e\	-mor	4c/	nouo	4r	.	.	.	4ee\	-na
.	.	.	.	.	.	.	.	8a\	-ui-	.	.
.	.	4.c/	gra-	4A/	A-	4a\	d' un	4cc\	-da	4ff\	Di-
!	!	!	!	!	!	!	!	!	!	!LO:SIC:v:t=custos cc	!
.	.	.	.	2e\	-mor	4ccny\	nouo	2cc\	foſ-	2ee\	-lor
.	.	8A/	-ui-	.	.	.	.	.	.	.	.
.	.	4c/	-da	.	.	4a\	A-	.	.	.	.
=26-	=26-	=26-	=26-	=26-	=26-	=26-	=26-	=26-	=26-	=26-	=26-
!	!	!	!	!	!	!	!	!	!	!LO:LB:g=original	!
0F	nouo	1c	foſ-	4.f\	gra-	1a	-mor	2cc\	-ſe	4r	.
.	.	.	.	.	.	.	.	.	.	4cc\	d' un
.	.	.	.	8c/	-ui-	.	.	.	.	.	.
.	.	.	.	2f\	-da	.	.	4r	.	4a/	nouo
.	.	.	.	.	.	.	.	4cc\	d' un	4f/	A-
.	.	0f	-ſe	1c	foſ-	4r	.	4a\	nouo	2cc\	-mor
.	.	.	.	.	.	4cc\	d' un	4f/	A-	.	.
.	.	.	.	.	.	4a\	nouo	2cc\	-mor	4r	.
.	.	.	.	.	.	4f\	A-	.	.	4a/	d' un
=27-	=27-	=27-	=27-	=27-	=27-	=27-	=27-	=27-	=27-	=27-	=27-
0D	A-	.	.	0d	-ſe	2a\	-mor	4r	.	4f/	nouo
.	.	.	.	.	.	.	.	4a\	d' un	4d/	A-
.	.	.	.	.	.	4r	.	4f/	nouo	2a/	-mor
!	!	!	!	!	!	!LO:SIC:v:t=custos f	!	!	!	!	!
.	.	.	.	.	.	4a\	d' un	4d/	A-	.	.
!	!	!	!	!	!	!	!	!LO:SIC:v:t=custos ee	!	!	!
!	!	!	!	!	!	!LO:LB:g=original	!	!	!	!	!
.	.	2r	.	.	.	4f\	nouo	2a\	-mor	4r	.
.	.	.	.	.	.	4d/	A-	.	.	4aa\	d' un
!	!	!	!	!	!	!	!	!LO:LB:g=original	!	!	!
.	.	4r	.	.	.	2a\	-mor	2r	.	4ff\	nuouo
.	.	4d\	d' un	.	.	.	.	.	.	4dd\	a-
=28-	=28-	=28-	=28-	=28-	=28-	=28-	=28-	=28-	=28-	=28-	=28-
0A	-mor	4c/	nouo	4r	.	4r	.	4r	.	2ee\	-mor
.	.	4A/	A-	2c/	e	4.a\	gra-	4ee\	d' un	.	.
.	.	2a\	-mor	.	.	.	.	4cc\	nouo	2r	.
.	.	.	.	.	.	8e/	-ui-	.	.	.	.
.	.	.	.	4d\	ciaſ-	4f\	-da	4a\	A-	.	.
.	.	4r	.	2e\	-cu-	4e/	foſ-	8ee\	-mor	4r	.
.	.	.	.	.	.	.	.	8dd\	.	.	.
.	.	2c/	e	.	.	4A/	-ſe	8cc\	.	4ee\	/d' un
.	.	.	.	.	.	.	.	8bny\	.	.	.
.	.	.	.	4e\	-na	2r	.	4.a\	.	4cc\	nouo
!	!	!LO:SIC:v:t=custos e	!	!	!	!	!	!	!	!	!
.	.	4d\	ciaſ-	4f\	Di	.	.	.	.	4a/	a-
.	.	.	.	.	.	.	.	8b\	.	.	.
=29-	=29-	=29-	=29-	=29-	=29-	=29-	=29-	=29-	=29-	=29-	=29-
!	!	!LO:LB:g=original	!	!	!	!	!	!	!	!	!
1.A	gra-	2e\	-cu-	8e\	lor	4r	.	4cc\	.	2ee\	-mor/
.	.	.	.	8d\	.	.	.	.	.	.	.
.	.	.	.	8c\	.	4e/	d' un	4.a\	gra-	.	.
.	.	.	.	8B/	.	.	.	.	.	.	.
.	.	4e\	-na	2A/	.	4c/	nouo	.	.	4r	.
.	.	.	.	.	.	.	.	8e/	-ui-	.	.
.	.	4f\	Di	.	.	4A/	A-	4cc\	-da	4.aa\	gra-
.	.	2e\	lor	4r	.	2a\	-mor	2cc\	foſ-	.	.
.	.	.	.	.	.	.	.	.	.	8ee\	-ui-
!	!	!	!	!	!	!	!	!	!	!LO:SIC:v:t=custos ee	!
.	.	.	.	4e\	d' un	.	.	.	.	4ff\	-da
!	!	!	!	!	!	!	!	!	!	!LO:LB:g=original	!
2A\	-ui-	4r	.	4c/	nouo	4r	.	2cc\	-ſe	4.ee\	foſ-
.	.	4c/	d' un	4A/	A-	4.a\	gra-	.	.	.	.
.	.	.	.	.	.	.	.	.	.	8dd\	.
=30-	=30-	=30-	=30-	=30-	=30-	=30-	=30-	=30-	=30-	=30-	=30-
0A	-da	4c/	nouo	2a\	-mor	.	.	4r	.	4cc#X\	.
.	.	.	.	.	.	8e/	-ui-	.	.	.	.
.	.	4A/	A-	.	.	4f\	-da	4.a\	gra-	4dd\	.
.	.	2a\	-mor	4r	.	4e/	foſ-	.	.	4ee\	.
.	.	.	.	.	.	.	.	8e/	-ui-	.	.
.	.	.	.	4.a\	gra-	4d/	.	4f/	-da	4a/	-ſe
.	.	4r	.	.	.	4c#X/	.	4e/	foſ-	4r	.
.	.	.	.	8e\	-ui-	.	.	.	.	.	.
.	.	4.a\	gra-	4f\	-da	4d/	.	4d/	.	4.aa\	gra-
.	.	.	.	4e\	foſ-	4e\	.	4c#X/	.	.	.
.	.	8e\	-ui-	.	.	.	.	.	.	8ee\	-ui-
!	!	!	!	!	!	!LO:SIC:v:t=custos a	!	!LO:SIC:v:t=custos e	!	!	!
.	.	4f\	-da	4d\	.	4a\	-ſe	4d/	.	4ff\	-da
=31-	=31-	=31-	=31-	=31-	=31-	=31-	=31-	=31-	=31-	=31-	=31-
!	!	!	!	!	!	!	!	!LO:LB:g=original	!	!	!
!	!	!	!	!	!	!LO:LB:g=original	!	!	!	!	!
0A	foſ-	4e\	foſ-	4c#X/	.	4r	.	4e/	.	4ee\	foſ-
.	.	4d\	.	4d\	.	4.a\	gra-	4a\	-ſe	2dd\	.
.	.	4c#X/	.	8e\	.	.	.	4.a\	gra-	.	.
.	.	.	.	8A/	.	8e\	-ui-	.	.	.	.
.	.	4d\	.	2a\	.	4f\	-da	.	.	8cc#X\	.
.	.	.	.	.	.	.	.	8a\	-ui-	8b\	.
.	.	2e\	.	.	.	1e	foſ-	2a\	-da	2cc#X\	.
.	.	.	.	8g\	.	.	.	.	.	.	.
.	.	.	.	8f\	.	.	.	.	.	.	.
.	.	2A/	.	2e\	.	.	.	2a\	foſ-	2%5dd\	.
=32-	=32-	=32-	=32-	=32-	=32-	=32-	=32-	=32-	=32-	=32-	=32-
0D	-ſe.	0A	-ſe.	0f#X	-ſe.	0d	-ſe.	0a	-ſe.	.	-ſe.
=-	=-	=-	=-	=-	=-	=-	=-	=-	=-	=-	=-
*-	*-	*-	*-	*-	*-	*-	*-	*-	*-	*-	*-
!!!system-decoration: [(s1,s2,s3,s4,s5,s6)]
!!!ENC: Berenika Jozajtis
!!!END: 2022-06-22
!!!ENC: Urszula Świątek
!!!END: 2022-07-24
!!!YEC: Copyright 2022 Narodowy Instytut Fryderyka Chopina (https://polishscores.org)
!!!YEM: Licence CC BY 4.0 (https://creativecommons.org/licenses/by/4.0)
